packages/ffe-icons/icons/open/300/md/keyboard_external_input.svg

<svg xmlns="http://www.w3.org/2000/svg" height="24" viewBox="0 -960 960 960" width="24"><path d="M160-280V-680v400Zm12.309 59.999q-30.308 0-51.308-21t-21-51.308v-375.382q0-30.308 21-51.308t51.308-21h615.382q30.308 0 51.308 21t21 51.308V-475q0 15-9.423 22.5t-20.577 7.5q-11.153 0-20.576-7.5T800-475v-192.691q0-4.616-3.846-8.463-3.847-3.846-8.463-3.846H172.309q-4.616 0-8.463 3.846-3.846 3.847-3.846 8.463v375.382q0 4.616 3.846 8.463 3.847 3.846 8.463 3.846h276.538q12.769 0 21.384 8.615t8.615 21.384q0 12.769-8.615 21.384-8.615 8.616-21.384 8.616H172.309ZM360-324.616h120q14.692 0 25.038-10.153 10.346-10.154 10.346-25.231 0-14.692-10.346-25.038T480-395.384H360q-14.692 0-25.038 10.153-10.346 10.154-10.346 25.231 0 14.692 10.346 25.038T360-324.616Zm384.694 104.615H593.846q-12.769 0-21.384-8.616-8.616-8.615-8.616-21.384t8.616-21.384Q581.077-280 593.846-280h150.848l-52.54-52.924q-8.308-8.308-8.308-20.769 0-12.461 8.923-21.384 8.308-8.308 21.077-8.308 12.769 0 21.076 8.308l99.384 99.769q10.846 10.846 10.846 25.307 0 14.462-10.846 25.308l-99.384 99.769q-8.307 8.307-20.769 8.423-12.461.115-21.384-8.808-8.307-8.307-8.307-20.884t8.307-20.884l51.925-52.924ZM240-564.616q14.692 0 25.038-10.346T275.384-600q0-14.692-10.346-25.038T240-635.384q-14.692 0-25.038 10.346T204.616-600q0 14.692 10.346 25.038T240-564.616Zm120 0q14.692 0 25.038-10.346T395.384-600q0-14.692-10.346-25.038T360-635.384q-14.692 0-25.038 10.346T324.616-600q0 14.692 10.346 25.038T360-564.616Zm120 0q14.692 0 25.038-10.346T515.384-600q0-14.692-10.346-25.038T480-635.384q-14.692 0-25.038 10.346T444.616-600q0 14.692 10.346 25.038T480-564.616Zm120 0q14.692 0 25.038-10.346T635.384-600q0-14.692-10.346-25.038T600-635.384q-14.692 0-25.038 10.346T564.616-600q0 14.692 10.346 25.038T600-564.616Zm120 0q14.692 0 25.038-10.346T755.384-600q0-14.692-10.346-25.038T720-635.384q-14.692 0-25.038 10.346T684.616-600q0 14.692 10.346 25.038T720-564.616Zm-480 120q14.692 0 25.038-10.346T275.384-480q0-14.692-10.346-25.038T240-515.384q-14.692 0-25.038 10.346T204.616-480q0 14.692 10.346 25.038T240-444.616Zm120 0q14.692 0 25.038-10.346T395.384-480q0-14.692-10.346-25.038T360-515.384q-14.692 0-25.038 10.346T324.616-480q0 14.692 10.346 25.038T360-444.616Zm120 0q14.692 0 25.038-10.346T515.384-480q0-14.692-10.346-25.038T480-515.384q-14.692 0-25.038 10.346T444.616-480q0 14.692 10.346 25.038T480-444.616Zm120 0q18.539 0 26.961-12.269 8.423-12.269 8.423-23.115 0-14.692-10.346-25.038T600-515.384q-14.692 0-25.038 10.346T564.616-480q0 13.538 9.192 24.461Q583-444.616 600-444.616Zm85.385-39.23q0 10.461 10.731 24.845 10.73 14.385 23.884 14.385 15.461 0 25.231-11.692Q755-468 755-483.846v2.269-.731q-.77-13.923-10.731-23.499-9.962-9.577-24.269-9.577-13.923 0-23.692 9-9.769 8.999-10.923 22.538Z"/></svg>

<svg xmlns="http://www.w3.org/2000/svg" height="24" viewBox="0 -960 960 960" width="24"><path d="M160-280v-400 400Zm12.31 60Q142-220 121-241q-21-21-21-51.31v-375.38Q100-698 121-719q21-21 51.31-21h615.38Q818-740 839-719q21 21 21 51.31V-475q0 15-9.42 22.5-9.43 7.5-20.58 7.5-11.15 0-20.58-7.5Q800-460 800-475v-192.69q0-4.62-3.85-8.46-3.84-3.85-8.46-3.85H172.31q-4.62 0-8.46 3.85-3.85 3.84-3.85 8.46v375.38q0 4.62 3.85 8.46 3.84 3.85 8.46 3.85h276.54q12.77 0 21.38 8.62 8.62 8.61 8.62 21.38t-8.62 21.38q-8.61 8.62-21.38 8.62H172.31ZM360-324.62h120q14.69 0 25.04-10.15 10.34-10.15 10.34-25.23 0-14.69-10.34-25.04-10.35-10.34-25.04-10.34H360q-14.69 0-25.04 10.15-10.34 10.15-10.34 25.23 0 14.69 10.34 25.04 10.35 10.34 25.04 10.34ZM744.69-220H593.85q-12.77 0-21.39-8.62-8.61-8.61-8.61-21.38t8.61-21.38q8.62-8.62 21.39-8.62h150.84l-52.54-52.92q-8.3-8.31-8.3-20.77 0-12.46 8.92-21.39 8.31-8.3 21.08-8.3 12.76 0 21.07 8.3l99.39 99.77q10.84 10.85 10.84 25.31 0 14.46-10.84 25.31l-99.39 99.77q-8.31 8.3-20.77 8.42-12.46.11-21.38-8.81-8.31-8.31-8.31-20.88 0-12.58 8.31-20.89L744.69-220ZM240-564.62q14.69 0 25.04-10.34 10.34-10.35 10.34-25.04t-10.34-25.04q-10.35-10.34-25.04-10.34t-25.04 10.34q-10.34 10.35-10.34 25.04t10.34 25.04q10.35 10.34 25.04 10.34Zm120 0q14.69 0 25.04-10.34 10.34-10.35 10.34-25.04t-10.34-25.04q-10.35-10.34-25.04-10.34t-25.04 10.34q-10.34 10.35-10.34 25.04t10.34 25.04q10.35 10.34 25.04 10.34Zm120 0q14.69 0 25.04-10.34 10.34-10.35 10.34-25.04t-10.34-25.04q-10.35-10.34-25.04-10.34t-25.04 10.34q-10.34 10.35-10.34 25.04t10.34 25.04q10.35 10.34 25.04 10.34Zm120 0q14.69 0 25.04-10.34 10.34-10.35 10.34-25.04t-10.34-25.04q-10.35-10.34-25.04-10.34t-25.04 10.34q-10.34 10.35-10.34 25.04t10.34 25.04q10.35 10.34 25.04 10.34Zm120 0q14.69 0 25.04-10.34 10.34-10.35 10.34-25.04t-10.34-25.04q-10.35-10.34-25.04-10.34t-25.04 10.34q-10.34 10.35-10.34 25.04t10.34 25.04q10.35 10.34 25.04 10.34Zm-480 120q14.69 0 25.04-10.34 10.34-10.35 10.34-25.04t-10.34-25.04q-10.35-10.34-25.04-10.34t-25.04 10.34q-10.34 10.35-10.34 25.04t10.34 25.04q10.35 10.34 25.04 10.34Zm120 0q14.69 0 25.04-10.34 10.34-10.35 10.34-25.04t-10.34-25.04q-10.35-10.34-25.04-10.34t-25.04 10.34q-10.34 10.35-10.34 25.04t10.34 25.04q10.35 10.34 25.04 10.34Zm120 0q14.69 0 25.04-10.34 10.34-10.35 10.34-25.04t-10.34-25.04q-10.35-10.34-25.04-10.34t-25.04 10.34q-10.34 10.35-10.34 25.04t10.34 25.04q10.35 10.34 25.04 10.34Zm120 0q18.54 0 26.96-12.27 8.42-12.26 8.42-23.11 0-14.69-10.34-25.04-10.35-10.34-25.04-10.34t-25.04 10.34q-10.34 10.35-10.34 25.04 0 13.54 9.19 24.46Q583-444.62 600-444.62Zm85.39-39.23q0 10.46 10.73 24.85 10.73 14.38 23.88 14.38 15.46 0 25.23-11.69t9.77-27.54v2.27-.73q-.77-13.92-10.73-23.5-9.96-9.57-24.27-9.57-13.92 0-23.69 9-9.77 9-10.92 22.53Z"/></svg>
